!!! OTL: Berkowitz611
!!! Chapter: 1
!!! Section: V
!!! Page: 156
!!! Mode: 
!!! Encoder: AR
**kern
*staff1
=1-
!!pagebreak:original
*clefG2
*k[]
*C:
*M4/4
8r
8a/
8b/L
8a/J
8cc/L
8g#/
8f#/
8g#/J
=2
8f#/L
8a/
8cc/
8b-/J
8dd-/L
8fn/
8dn/
8e/J
=3
8c#/L
8a/
8ddn/
8cc#/J
8e/L
8cc#/
8e/
8cc#/J
=4
8ccn/L
8a/
8d-/
8a/J
8cc/L
8a-/
8d-/
8a-/J
=5
!!linebreak:original
8g/L
8an/
8g/
8f/J
8f#/L
8b/
8a#/
8b/J
=6
8g\L
8cc#\
8ee\
8dd\J
8b-\L
8an\
8ccn\
8b-\J
=7
8g-/L
8b-/
8a/
8cn/J
4e-/
4d-/
=8
!!linebreak:original
8b-/L
8b-/
8gn/
8b-/J
4d-/
4c-/
=9
8r
8B-/
8d-/L
8a/J
8ccn/L
8a/
8d-/
8a/J
=10
8cc/L
8a/
8d-/
8a/J
8g/L
8f/
8e-/
8d-/J
=11
4c/
4r
2r
==
*-
